svg/firebase.svg

<svg xmlns="http://www.w3.org/2000/svg" viewBox="0 0 24 24"><path d="m20 18.69-7.3 4.05q-.75.39-1.5 0L4 18.69 17.05 5.54l.35-.1c.3 0 .47.13.5.4zM9.35 5.74 4.8 13.29 6.7 1.34c.03-.27.2-.4.5-.4.2 0 .33.06.4.25l2.15 3.95zM13.85 7 4.3 16.59l7.25-12.3c.1-.2.25-.29.45-.29s.33.09.4.29z"/></svg>

<?xml version="1.0" encoding="UTF-8"?><!DOCTYPE svg PUBLIC "-//W3C//DTD SVG 1.1//EN" "http://www.w3.org/Graphics/SVG/1.1/DTD/svg11.dtd"><svg xmlns="http://www.w3.org/2000/svg" xmlns:xlink="http://www.w3.org/1999/xlink" version="1.1" id="mdi-firebase" width="24" height="24" viewBox="0 0 24 24"><path d="M20,18.69L12.7,22.74C12.2,23 11.7,23 11.2,22.74L4,18.69L17.05,5.54L17.4,5.44C17.7,5.44 17.87,5.57 17.9,5.84L20,18.69M9.35,5.74L4.8,13.29L6.7,1.34C6.73,1.07 6.9,0.94 7.2,0.94C7.4,0.94 7.53,1 7.6,1.19L9.75,5.14L9.35,5.74M13.85,7L4.3,16.59L11.55,4.29C11.65,4.09 11.8,4 12,4C12.2,4 12.33,4.09 12.4,4.29L13.85,7Z" /></svg>
